packages/ui-icons/svg/Solid/image.svg

<svg viewBox="0 0 1920 1920" version="1.1" xmlns="http://www.w3.org/2000/svg">
    <path d="M1493.60188,1468.29412 L225.837176,1468.29412 C523.211294,387.898824 755.305412,1443.89882 983.898353,1115.91765 C1268.51012,707.635294 1574.46776,710.232941 1694.07247,1468.29412 L1493.60188,1468.29412 Z M677.601882,338.882353 C802.401882,338.882353 903.484235,440.077647 903.484235,564.764706 C903.484235,689.451765 802.401882,790.647059 677.601882,790.647059 C552.914824,790.647059 451.719529,689.451765 451.719529,564.764706 C451.719529,440.077647 552.914824,338.882353 677.601882,338.882353 L677.601882,338.882353 Z M-0.0451764706,1807.11765 L1919.95482,1807.11765 L1919.95482,113 L-0.0451764706,113 L-0.0451764706,1807.11765 Z" stroke="none" stroke-width="1" fill-rule="evenodd"/>
</svg>

<svg viewBox="0 0 1920 1920" version="1.1" xmlns="http://www.w3.org/2000/svg">
    <path d="M1493.602 1468.294H225.837C523.211 387.9 755.305 1443.9 983.898 1115.918c284.612-408.283 590.57-405.685 710.174 352.376h-200.47zm-816-1129.412c124.8 0 225.882 101.196 225.882 225.883 0 124.687-101.082 225.882-225.882 225.882-124.687 0-225.882-101.195-225.882-225.882 0-124.687 101.195-225.883 225.882-225.883zM-.045 1807.118h1920V113h-1920v1694.118z" stroke="none" stroke-width="1" fill-rule="evenodd"/>
</svg>
